X:43
T:T'Auld Wife of Coverhill
N:used for Ampleforth sword dance
K:Am
M:9/8
E |: ABA c2d edc | BcB G2B BGE | \
    ABA c2d edc | BcB G2B A3 :|
M:6/8
e |: agf edc | B3 g3 | B3 e3 | \
    agf edc | B2d  G2B | dcB A3 :|
